!!!COM: John Williams
!!!OTL: March of the Resistance (Basic)
!!!GAW: Star Wars: Episode 7
!!!ODT: 2015
!!!OCL: Frank Lehman
!!!ENC: Claire Arthur
!!!ENC2: John McNamara
**kern	**harte	**harm	**altharm	**pedal	**cadence
*clefG2	*	*	*	*	*
*k[b-e-]	*k[b-e-]	*k[b-e-]	*	*	*
*g:	*g:	*g:	*	*	*
*M2/4	*M2/4	*M2/4	*	*	*
*MM100  *   *   *   *   *
8d	.	.	.	.	.
=1	=1	=1	=1	=1	=1
4g	G:min	i	.	Pedal: G	.
4a	D	V	.	Pedal: G	.
=2	=2	=2	=2	=2	=2
16b-LL	G:min	i	.	Pedal: G	.
16aJ	.	.	.	Pedal: G	.
8b-J	G:min/m3	.	.	.	.
8r	G:min	.	.	.	.
[8b-	G:min/5	.	.	.	.
=3	=3	=3	=3	=3	=3
8b-L]	G:min/m3	.	.	.	.
16aL	G:min	.	.	.	.
16b-JJ	.	.	.	.	.
8ccL	G:sus4(2)	.	.	.	.
16b-L	.	.	.	.	.
16ccJJ	.	.	.	.	.
=4	=4	=4	=4	=4	=4
16ddLL	G:min	.	.	.	.
16cc#J	.	.	.	.	.
8ddJ	.	.	.	.	.
8r	.	.	.	.	.
8g	.	.	.	.	.
=5	=5	=5	=5	=5	=5
4ee-	A:dim/m3	iiob	.	.	.
4a	A:dim	iio	.	.	.
=6	=6	=6	=6	=6	=6
8ddL	G:min	i	.	.	.
16cc#L	.	.	.	.	.
16ddJJ	.	.	.	.	.
8ee-L	C:min/m3	ivb	.	.	.
16ddL	.	.	.	.	.
16ee-JJ	.	.	.	.	.
=7	=7	=7	=7	=7	=7
8.ffL	Bb/3	IIIb	.	.	.
16b-Jk	.	.	.	.	.
16ccLL	.	.	.	.	.
16dd	.	.	.	.	.
16ee-	.	.	.	.	.
16ffJJ	.	.	.	.	.
=8	=8	=8	=8	=8	=8
8ggL	Eb	VI	.	.	.
8ff#J	D	V	.	.	HC
4r	.	.	.	.	//
=	=	=	=	=	=
*-	*-	*-	*-	*-	*-
